packages/ffe-icons/icons/open/400/sm/speed_1_5.svg

<svg xmlns="http://www.w3.org/2000/svg" height="20" viewBox="0 -960 960 960" width="20"><path d="M300.21-288q-15.21 0-25.71-10.35T264-324v-276h-35.79q-15.21 0-25.71-10.29t-10.5-25.5q0-15.21 10.38-25.71t25.73-10.5h36.1Q294-672 315-650.85T336-600v276q0 15.3-10.29 25.65Q315.42-288 300.21-288ZM540-288q-15.3 0-25.65-10.29Q504-308.58 504-323.79t10.35-25.71Q524.7-360 540-360h132v-84h-96q-29.7 0-50.85-21.15Q504-486.3 504-516v-84q0-29.7 21.15-50.85Q546.3-672 576-672h132q15.3 0 25.65 10.29Q744-651.42 744-636.21t-10.35 25.71Q723.3-600 708-600H576v84h96q29.7 0 50.85 21.15Q744-473.7 744-444v84q0 29.7-21.15 50.85Q701.7-288 672-288H540Zm-119.79 0q-15.21 0-25.71-10.29t-10.5-25.5q0-15.21 10.29-25.71t25.5-10.5q15.21 0 25.71 10.29t10.5 25.5q0 15.21-10.29 25.71t-25.5 10.5Z"/></svg>

<svg xmlns="http://www.w3.org/2000/svg" height="20" viewBox="0 -960 960 960" width="20"><path d="M300.211-288Q285-288 274.5-298.35 264-308.7 264-324v-276h-35.789Q213-600 202.5-610.289q-10.5-10.29-10.5-25.5Q192-651 202.381-661.5q10.38-10.5 25.725-10.5h36.106Q294-672 315-650.85q21 21.15 21 50.85v276q0 15.3-10.289 25.65-10.29 10.35-25.5 10.35ZM540-288q-15.3 0-25.65-10.289-10.35-10.29-10.35-25.5Q504-339 514.35-349.5 524.7-360 540-360h132v-84h-96q-29.7 0-50.85-21.15Q504-486.3 504-516v-84q0-29.7 21.15-50.85Q546.3-672 576-672h132q15.3 0 25.65 10.289 10.35 10.29 10.35 25.5Q744-621 733.65-610.5 723.3-600 708-600H576v84h96q29.7 0 50.85 21.15Q744-473.7 744-444v84q0 29.7-21.15 50.85Q701.7-288 672-288H540Zm-119.789 0Q405-288 394.5-298.289q-10.5-10.29-10.5-25.5Q384-339 394.289-349.5q10.29-10.5 25.5-10.5Q435-360 445.5-349.711q10.5 10.29 10.5 25.5Q456-309 445.711-298.5q-10.29 10.5-25.5 10.5Z"/></svg>
